X: 2074
T: AYRSHIRE LASSES
C:
Q: "Strathspey."
R: Strathspey.
%R: strathspey
B: James Kerr "Merry Melodies" v.2 p.11 #74
Z: 2016 John Chambers <jc:trillian.mit.edu>
M: C
L: 1/16
%%slurgraces yes
%%graceslurs yes
K: C
|:\
(vGc3)(Ec3) vd3vcud3ue | cc3 ve3ud cA3 vAuc3 |\
vG3vcuE3uc vd3vcud3ue | vcA3 vG3uF EC3 C4 :|
|:\
{^f}vg3veuc3ug efge c3ue | g3ec3e dD3- D3ue |\
g3ec3e d3cd3e | cA3 G3F EC3- C4 :|

%%sep 1 1 500
%%sep 1 1 500

